src/svg/chevron-collapse.svg

<svg viewBox="0 0 512 512" fill="none" xmlns="http://www.w3.org/2000/svg">
  <path fill-rule="evenodd" clip-rule="evenodd" d="M117.863 88.282C109.182 98.2986 110.265 113.456 120.282 122.137L240.282 226.137C249.302 233.955 262.698 233.955 271.718 226.137L391.718 122.137C401.735 113.456 402.818 98.2986 394.137 88.2821C385.456 78.2655 370.298 77.1829 360.282 85.8638L256 176.241L151.718 85.8638C141.702 77.1828 126.544 78.2655 117.863 88.282Z" fill="none" stroke="#000"/>
  <path fill-rule="evenodd" clip-rule="evenodd" d="M117.863 423.718C109.182 413.701 110.265 398.544 120.282 389.863L240.282 285.863C249.302 278.045 262.698 278.045 271.718 285.863L391.718 389.863C401.735 398.544 402.818 413.701 394.137 423.718C385.456 433.734 370.298 434.817 360.282 426.136L256 335.759L151.718 426.136C141.702 434.817 126.544 433.734 117.863 423.718Z" fill="none" stroke="#000"/>
</svg>

<svg xmlns="http://www.w3.org/2000/svg" viewBox="0 0 512 512" fill="none" stroke="#000"><path d="M117.863 88.282c-8.681 10.017-7.598 25.174 2.419 33.855l120 104c9.02 7.818 22.416 7.818 31.436 0l120-104c10.017-8.681 11.1-23.838 2.419-33.855s-23.839-11.099-33.855-2.418L256 176.241 151.718 85.864c-10.016-8.681-25.174-7.598-33.855 2.418zm0 335.436c-8.681-10.017-7.598-25.174 2.419-33.855l120-104c9.02-7.818 22.416-7.818 31.436 0l120 104c10.017 8.681 11.1 23.838 2.419 33.855s-23.839 11.099-33.855 2.418L256 335.759l-104.282 90.377c-10.016 8.681-25.174 7.598-33.855-2.418z"/></svg>
